X:1
T: Altweiber-Walzer CF chords parts
T:Hanny Christen. Bd.I Zürich, Schaffhausen, St. Gallen I. S.371 (wz05115) orig. C,F-Dur
T: Aus dem Repertoire von Joh. Heeb, Sax, St. Galler Rheintal, 1952. S.362-393.
%%MIDI program 21
R: waltz
M:3/4
L:1/4
K:C %%MIDI gchordon
[P:A] "C"g2a/g/ | e3 | "G7"g2a/g/ | f3 | d2G | d2e | "C"d2c | czz | g2a/g/ | e3 | "G7"g2 a/g/ | 
f3 | d2G | e2d | "C"c>cc | czz  [P:B] |: "C"Gc/c/c | "G7"BAG | f/f/fB | "C"e/e/ec | Gc/c/c | 
"G7"BAG | f/f/fB |  "C"czz :| [P:C] [K:F ] "F"czf | fzc | "C7"ezd | B3 | ezd | B3 | "F"dzc | 
c=B_B | czf | fzc | "Gm"ezd | B3 | "C7"ezd | c2e | "F"f>ff | fzz |]
% June 1, 2016

